glitch-avatars-svg/base_avatar/Avatar.fla/placeholder symbols 3/Avatar_backArmUpperLeft3.svg

<?xml version="1.0" encoding="UTF-8" standalone="no"?>
<!-- Generator: flash2svg, http://dissentgraphics.com/tools/flash2svg -->

<svg
   xmlns:dc="http://purl.org/dc/elements/1.1/"
   xmlns:cc="http://creativecommons.org/ns#"
   xmlns:rdf="http://www.w3.org/1999/02/22-rdf-syntax-ns#"
   xmlns:svg="http://www.w3.org/2000/svg"
   xmlns="http://www.w3.org/2000/svg"
   xmlns:sodipodi="http://sodipodi.sourceforge.net/DTD/sodipodi-0.dtd"
   xmlns:inkscape="http://www.inkscape.org/namespaces/inkscape"
   id="Avatar"
   image-rendering="auto"
   version="1.1"
   x="0px"
   y="0px"
   width="18.471235"
   height="8.1000004"
   viewBox="0 0 18.471235 8.1000004"
   inkscape:version="0.48.4 r9939"
   sodipodi:docname="Avatar_backArmUpperLeft3.svg">
  <metadata
     id="metadata3024">
    <rdf:RDF>
      <cc:Work
         rdf:about="">
        <dc:format>image/svg+xml</dc:format>
        <dc:type
           rdf:resource="http://purl.org/dc/dcmitype/StillImage" />
      </cc:Work>
    </rdf:RDF>
  </metadata>
  <sodipodi:namedview
     pagecolor="#ffffff"
     bordercolor="#666666"
     borderopacity="1"
     objecttolerance="10"
     gridtolerance="10"
     guidetolerance="10"
     inkscape:pageopacity="0"
     inkscape:pageshadow="2"
     inkscape:window-width="640"
     inkscape:window-height="480"
     id="namedview3022"
     showgrid="false"
     fit-margin-top="0"
     fit-margin-left="0"
     fit-margin-right="0"
     fit-margin-bottom="0"
     inkscape:zoom="1.8730159"
     inkscape:cx="51.94762"
     inkscape:cy="-56.434928"
     inkscape:window-x="0"
     inkscape:window-y="0"
     inkscape:window-maximized="0"
     inkscape:current-layer="Avatar" />
  <defs
     id="defs3006">
    <radialGradient
       gradientUnits="userSpaceOnUse"
       color-interpolation="sRGB"
       r="10.749791"
       cx="-8.6990004"
       cy="1.25"
       fx="-8.6990004"
       fy="1.25"
       gradientTransform="matrix(1,0,0,-1,0,2.5)"
       id="radialGradient">
      <stop
         stop-color="#FFF"
         stop-opacity="1"
         offset="0"
         id="stop3009" />
      <stop
         stop-color="#FFF"
         stop-opacity="0.40784313725490196"
         offset="1"
         id="stop3011" />
    </radialGradient>
    <radialGradient
       gradientUnits="userSpaceOnUse"
       color-interpolation="sRGB"
       r="10.75"
       cx="-8.6990004"
       cy="3.75"
       fx="-8.6990004"
       fy="3.75"
       gradientTransform="matrix(1,0,0,-1,0,4.95)"
       id="radialGradient1">
      <stop
         stop-color="#FFF"
         stop-opacity="1"
         offset="0"
         id="stop3014" />
      <stop
         stop-color="#FFF"
         stop-opacity="0.40784313725490196"
         offset="1"
         id="stop3016" />
    </radialGradient>
  </defs>
  <g
     id="backArmUpperLeft4"
     overflow="visible"
     style="overflow:visible"
     transform="translate(17.94762,2.8)">
    <g
       id="backArmUpperLeft3_0">
      <g
         id="element">
        <path
           id="path"
           d="m -13.25,-2.1 -0.25,0.15 c -1.5,0.25 -2.8,0.7 -3.7,1.95 l -0.2,0.1 0.05,0.1 c -0.65,1 -0.8,2.4 -0.3,3.5 l -0.05,0 0.05,0.05 c 0.25,0.45 0.6,0.85 1.1,1.15 0.4,0.15 1.1,0.25 1.95,0.3 l 0.05,0.1 0.05,-0.1 1.2,0.05 c 1.1,0 2.35,-0.05 3.55,-0.15 l 0.2,0.05 0,-0.05 4.15,-0.6 0.6,0.05 0.05,-0.25 c 2.2,-0.65 4.2,-1.7 4.6,-2.55 C 1.2,-1.2 0.7,-2.6 -3.3,-2.75 l -0.05,-0.05 -0.1,0.05 -0.55,0 c -0.9,0 -2.05,0.05 -3.35,0.2 l 0,-0.05 -0.1,0.05 -5.75,0.55 -0.05,-0.1 z M 0.2,-0.9 -4.4,0 l 0,-0.4 c 0.05,-0.45 0.2,-0.85 0.35,-1.15 1.85,-0.1 3.4,-0.1 4,0.25 L 0,-1.4 0.2,-0.9 z m -14.75,0.15 -2.1,0.55 c 0.7,-0.75 1.65,-1.15 2.75,-1.4 -0.2,0.25 -0.45,0.5 -0.65,0.85 z m 1.2,-0.95 2.25,-0.2 0.2,-0.05 c -0.15,0.2 -0.35,0.4 -0.5,0.75 l -2.75,0.35 c 0.3,-0.4 0.6,-0.65 0.8,-0.85 z m 2.9,-0.25 2.7,-0.3 -0.45,0.75 -2.85,0.25 0.6,-0.7 z m -0.65,1.05 2.75,-0.25 C -8.5,-0.7 -8.6,-0.1 -8.6,0.7 l 0,0.05 -3.05,0.35 0,-0.35 c 0.05,-0.7 0.25,-1.25 0.45,-1.65 l 0.1,0 z m -0.45,0 c -0.2,0.45 -0.35,1 -0.35,1.65 l 0,0.35 -3.1,0.45 0.2,-1 c 0.1,-0.4 0.25,-0.75 0.45,-1.05 l 2.8,-0.4 z m 4.25,-1.35 c 1.3,-0.15 2.4,-0.2 3.3,-0.2 l 0.2,0 -0.45,0.6 -3.6,0.35 c 0.2,-0.4 0.4,-0.65 0.55,-0.75 z m -0.55,1.05 3.45,-0.3 c -0.15,0.3 -0.25,0.65 -0.25,1.1 -0.05,0.15 -0.05,0.3 0,0.5 l -3.65,0.6 0,-0.05 c 0,-0.8 0.1,-1.4 0.3,-1.85 l 0.15,0 z m 4.5,-1.25 c 1.6,0.05 2.6,0.3 3.1,0.75 -0.7,-0.25 -2.05,-0.25 -3.65,-0.15 0.2,-0.3 0.4,-0.5 0.55,-0.6 z M -4.2,1.95 C -5.25,2.25 -6.45,2.5 -7.75,2.75 -8,2.3 -8.2,1.7 -8.25,1 l 3.6,-0.6 c 0.05,0.5 0.2,1.05 0.45,1.55 z M -4.35,0.3 -0.1,-0.55 c -0.35,0.4 -1.1,1.2 -2.4,1.85 L -3.95,1.85 C -4.15,1.4 -4.3,0.85 -4.35,0.3 z m 0.55,1.8 1.4,-0.55 c 1.5,-0.7 2.3,-1.55 2.6,-2 -0.05,0.55 -0.25,1.2 -0.6,2.1 q -0.35,0.7 -2.1,1.5 l 0,-0.05 C -2.85,3.1 -3.15,2.95 -3.4,2.65 -3.55,2.5 -3.7,2.35 -3.8,2.1 z M -3.65,2.9 -2.9,3.35 -5.4,4.2 -5.9,4.1 C -6.5,4.05 -7.1,3.7 -7.55,3.05 -6.25,2.8 -5.1,2.5 -4.1,2.2 l 0.45,0.7 z m -4.4,-0.05 -3.2,0.55 c -0.25,-0.65 -0.35,-1.35 -0.4,-2 l 3.1,-0.35 c 0.05,0.7 0.25,1.3 0.5,1.8 z m 1.4,1.6 C -7.5,4.6 -8.6,4.7 -9.75,4.8 -10.4,4.65 -10.85,4.2 -11.15,3.7 L -7.9,3.1 c 0.45,0.7 1.1,1.1 1.7,1.25 l -0.45,0.1 z m -8.2,0.45 C -15.8,4.85 -16.2,4.7 -16.4,4.6 -16.7,4.45 -17,4.2 -17.2,3.95 c 0.4,0.1 0.9,0.2 1.7,0.2 l 0.4,0 0.25,0.75 z m 0.05,-0.75 c 0.8,-0.05 1.9,-0.2 3.3,-0.4 l 0.05,0 c 0.25,0.5 0.6,0.85 1.05,1.1 L -14.45,4.9 C -14.6,4.75 -14.7,4.5 -14.8,4.15 z m 2.9,-2.75 c 0,0.8 0.15,1.5 0.35,2.05 -1.45,0.25 -2.5,0.35 -3.35,0.4 -0.1,-0.6 -0.15,-1.3 -0.1,-2 l 3.1,-0.45 z m -5.7,0.9 2.3,-0.4 c -0.05,0.7 0,1.35 0.1,1.95 C -16.4,3.9 -17,3.7 -17.4,3.5 l -0.15,-0.35 c -0.1,-0.35 -0.1,-0.7 -0.1,-1.1 l 0.05,0.25 z m -0.05,-0.25 c 0.05,-0.6 0.25,-1.2 0.55,-1.65 L -17,0.25 c 0.4,-0.15 1.2,-0.4 2.25,-0.65 l -0.35,0.85 -0.2,1.15 -2.35,0.45 z"
           inkscape:connector-curvature="0"
           style="fill:url(#radialGradient1)" />
      </g>
    </g>
  </g>
</svg>

<?xml version="1.0" encoding="utf-8"?>
<!-- Generator: flash2svg, http://dissentgraphics.com/tools/flash2svg -->
<svg xmlns:xlink="http://www.w3.org/1999/xlink" id="Avatar" image-rendering="auto" baseProfile="basic" version="1.1" x="0px" y="0px" width="68" height="126" xmlns="http://www.w3.org/2000/svg" viewBox="0 0 68 126">
  <defs>
    <radialGradient gradientUnits="userSpaceOnUse" color-interpolation="sRGB" r="10.749790954589844" cx="-8.699" cy="1.25" fx="-8.699000000000002" fy="1.25" gradientTransform="matrix(1 0 0 -1 0 2.5)" id="radialGradient">
      <stop stop-color="#FFF" stop-opacity="1" offset="0"/>
      <stop stop-color="#FFF" stop-opacity="0.40784313725490196" offset="1"/>
    </radialGradient>
    <radialGradient gradientUnits="userSpaceOnUse" color-interpolation="sRGB" r="10.75" cx="-8.699" cy="3.75" fx="-8.699" fy="3.75" gradientTransform="matrix(1 0 0 -1 0 4.95)" id="radialGradient1">
      <stop stop-color="#FFF" stop-opacity="1" offset="0"/>
      <stop stop-color="#FFF" stop-opacity="0.40784313725490196" offset="1"/>
    </radialGradient>
  </defs>
  <g id="backArmUpperLeft4" overflow="visible">
    <g id="backArmUpperLeft3_0">
      <g id="element">
        <path id="path" fill="url(#radialGradient1)" d="M-13.25,-2.1 L-13.5,-1.95 C-15,-1.7 -16.3,-1.25 -17.2,0 L-17.4,0.1 -17.35,0.2 C-18,1.2 -18.15,2.6 -17.65,3.7 L-17.7,3.7 -17.65,3.75 C-17.4,4.2 -17.05,4.6 -16.55,4.9 -16.15,5.05 -15.45,5.15 -14.6,5.2 L-14.55,5.3 -14.5,5.2 -13.3,5.25 C-12.2,5.25 -10.95,5.2 -9.75,5.1 L-9.55,5.15 -9.55,5.1 -5.4,4.5 -4.8,4.55 -4.75,4.3 C-2.55,3.65 -0.55,2.6 -0.15,1.75 1.2,-1.2 0.7,-2.6 -3.3,-2.75 L-3.35,-2.8 -3.45,-2.75 -4,-2.75 C-4.9,-2.75 -6.05,-2.7 -7.35,-2.55 L-7.35,-2.6 -7.45,-2.55 -13.2,-2 -13.25,-2.1z M0.2,-0.9 L-4.4,0 -4.4,-0.4 C-4.35,-0.85 -4.2,-1.25 -4.05,-1.55 -2.2,-1.65 -0.65,-1.65 -0.05,-1.3 L0,-1.4 0.2,-0.9z M-14.55,-0.75 L-16.65,-0.2 C-15.95,-0.95 -15,-1.35 -13.9,-1.6 -14.1,-1.35 -14.35,-1.1 -14.55,-0.75z M-13.35,-1.7 L-11.1,-1.9 -10.9,-1.95 C-11.05,-1.75 -11.25,-1.55 -11.4,-1.2 L-14.15,-0.85 C-13.85,-1.25 -13.55,-1.5 -13.35,-1.7z M-10.45,-1.95 L-7.75,-2.25 -8.2,-1.5 -11.05,-1.25 -10.45,-1.95z M-11.1,-0.9 L-8.35,-1.15 C-8.5,-0.7 -8.6,-0.1 -8.6,0.7 L-8.6,0.75 -11.65,1.1 -11.65,0.75 C-11.6,0.05 -11.4,-0.5 -11.2,-0.9 L-11.1,-0.9z M-11.55,-0.9 C-11.75,-0.45 -11.9,0.1 -11.9,0.75 L-11.9,1.1 -15,1.55 -14.8,0.55 C-14.7,0.15 -14.55,-0.2 -14.35,-0.5 L-11.55,-0.9z M-7.3,-2.25 C-6,-2.4 -4.9,-2.45 -4,-2.45 L-3.8,-2.45 -4.25,-1.85 -7.85,-1.5 C-7.65,-1.9 -7.45,-2.15 -7.3,-2.25z M-7.85,-1.2 L-4.4,-1.5 C-4.55,-1.2 -4.65,-0.85 -4.65,-0.4 -4.7,-0.25 -4.7,-0.1 -4.65,0.1 L-8.3,0.7 -8.3,0.65 C-8.3,-0.15 -8.2,-0.75 -8,-1.2 L-7.85,-1.2z M-3.35,-2.45 C-1.75,-2.4 -0.75,-2.15 -0.25,-1.7 -0.95,-1.95 -2.3,-1.95 -3.9,-1.85 -3.7,-2.15 -3.5,-2.35 -3.35,-2.45z M-4.2,1.95 C-5.25,2.25 -6.45,2.5 -7.75,2.75 -8,2.3 -8.2,1.7 -8.25,1 L-4.65,0.4 C-4.6,0.9 -4.45,1.45 -4.2,1.95z M-4.35,0.3 L-0.1,-0.55 C-0.45,-0.15 -1.2,0.65 -2.5,1.3 L-3.95,1.85 C-4.15,1.4 -4.3,0.85 -4.35,0.3z M-3.8,2.1 L-2.4,1.55 C-0.9,0.85 -0.1,0 0.2,-0.45 0.15,0.1 -0.05,0.75 -0.4,1.65 Q-0.75,2.35 -2.5,3.15 L-2.5,3.1 C-2.85,3.1 -3.15,2.95 -3.4,2.65 -3.55,2.5 -3.7,2.35 -3.8,2.1z M-3.65,2.9 L-2.9,3.35 -5.4,4.2 -5.9,4.1 C-6.5,4.05 -7.1,3.7 -7.55,3.05 -6.25,2.8 -5.1,2.5 -4.1,2.2 L-3.65,2.9z M-8.05,2.85 L-11.25,3.4 C-11.5,2.75 -11.6,2.05 -11.65,1.4 L-8.55,1.05 C-8.5,1.75 -8.3,2.35 -8.05,2.85z M-6.65,4.45 C-7.5,4.6 -8.6,4.7 -9.75,4.8 -10.4,4.65 -10.85,4.2 -11.15,3.7 L-7.9,3.1 C-7.45,3.8 -6.8,4.2 -6.2,4.35 L-6.65,4.45z M-14.85,4.9 C-15.8,4.85 -16.2,4.7 -16.4,4.6 -16.7,4.45 -17,4.2 -17.2,3.95 -16.8,4.05 -16.3,4.15 -15.5,4.15 L-15.1,4.15 -14.85,4.9z M-14.8,4.15 C-14,4.1 -12.9,3.95 -11.5,3.75 L-11.45,3.75 C-11.2,4.25 -10.85,4.6 -10.4,4.85 L-14.45,4.9 C-14.6,4.75 -14.7,4.5 -14.8,4.15z M-11.9,1.4 C-11.9,2.2 -11.75,2.9 -11.55,3.45 -13,3.7 -14.05,3.8 -14.9,3.85 -15,3.25 -15.05,2.55 -15,1.85 L-11.9,1.4z M-17.6,2.3 L-15.3,1.9 C-15.35,2.6 -15.3,3.25 -15.2,3.85 -16.4,3.9 -17,3.7 -17.4,3.5 L-17.55,3.15 C-17.65,2.8 -17.65,2.45 -17.65,2.05 L-17.6,2.3z M-17.65,2.05 C-17.6,1.45 -17.4,0.85 -17.1,0.4 L-17,0.25 C-16.6,0.1 -15.8,-0.15 -14.75,-0.4 L-15.1,0.45 -15.3,1.6 -17.65,2.05z"/>
      </g>
    </g>
  </g>
</svg>
